propusk-quiz/img/icons/whatsapp.svg

<svg width="20" height="21" viewBox="0 0 20 21" fill="none" xmlns="http://www.w3.org/2000/svg">
<path d="M10.04 0.5C4.58005 0.5 0.130049 4.95 0.130049 10.41C0.130049 12.16 0.590049 13.86 1.45005 15.36L0.0500488 20.5L5.30005 19.12C6.75005 19.91 8.38005 20.33 10.04 20.33C15.5 20.33 19.9501 15.88 19.9501 10.42C19.9501 7.77 18.92 5.28 17.05 3.41C15.18 1.53 12.69 0.5 10.04 0.5ZM10.05 2.17C12.25 2.17 14.31 3.03 15.87 4.59C17.42 6.15 18.2801 8.22 18.2801 10.42C18.2801 14.96 14.58 18.65 10.04 18.65C8.56005 18.65 7.11005 18.26 5.85005 17.5L5.55005 17.33L2.43005 18.15L3.26005 15.11L3.06005 14.79C2.24005 13.5 1.80005 11.97 1.80005 10.41C1.81005 5.87 5.50005 2.17 10.05 2.17ZM6.53005 5.83C6.37005 5.83 6.10005 5.89 5.87005 6.14C5.65005 6.39 5.00005 7 5.00005 8.21C5.00005 9.43 5.89005 10.6 6.00005 10.77C6.14005 10.94 7.76005 13.44 10.25 14.5C10.84 14.77 11.3 14.92 11.66 15.03C12.25 15.22 12.79 15.19 13.22 15.13C13.7 15.06 14.68 14.53 14.89 13.95C15.1 13.37 15.1 12.88 15.04 12.77C14.97 12.67 14.81 12.61 14.56 12.5C14.31 12.36 13.09 11.76 12.87 11.68C12.64 11.6 12.5 11.56 12.31 11.8C12.15 12.05 11.67 12.61 11.53 12.77C11.38 12.94 11.24 12.96 11 12.84C10.74 12.71 9.94005 12.45 9.00005 11.61C8.26005 10.95 7.77005 10.14 7.62005 9.89C7.50005 9.65 7.61005 9.5 7.73005 9.39C7.84005 9.28 8.00005 9.1 8.10005 8.95C8.23005 8.81 8.27005 8.7 8.35005 8.54C8.43005 8.37 8.39005 8.23 8.33005 8.11C8.27005 8 7.77005 6.76 7.56005 6.27C7.36005 5.79 7.16005 5.85 7.00005 5.84C6.86005 5.84 6.70005 5.83 6.53005 5.83Z" fill="white"/>
</svg>

<svg width="20" height="21" fill="none" xmlns="http://www.w3.org/2000/svg"><path d="M10.04.5C4.58.5.13 4.95.13 10.41c0 1.75.46 3.45 1.32 4.95L.05 20.5l5.25-1.38c1.45.79 3.08 1.21 4.74 1.21 5.46 0 9.91-4.45 9.91-9.91 0-2.65-1.03-5.14-2.9-7.01A9.816 9.816 0 0010.04.5zm.01 1.67c2.2 0 4.26.86 5.82 2.42a8.225 8.225 0 012.41 5.83c0 4.54-3.7 8.23-8.24 8.23-1.48 0-2.93-.39-4.19-1.15l-.3-.17-3.12.82.83-3.04-.2-.32a8.188 8.188 0 01-1.26-4.38c.01-4.54 3.7-8.24 8.25-8.24zM6.53 5.83c-.16 0-.43.06-.66.31C5.65 6.39 5 7 5 8.21c0 1.22.89 2.39 1 2.56.14.17 1.76 2.67 4.25 3.73.59.27 1.05.42 1.41.53.59.19 1.13.16 1.56.1.48-.07 1.46-.6 1.67-1.18.21-.58.21-1.07.15-1.18-.07-.1-.23-.16-.48-.27-.25-.14-1.47-.74-1.69-.82-.23-.08-.37-.12-.56.12-.16.25-.64.81-.78.97-.15.17-.29.19-.53.07-.26-.13-1.06-.39-2-1.23-.74-.66-1.23-1.47-1.38-1.72-.12-.24-.01-.39.11-.5.11-.11.27-.29.37-.44.13-.14.17-.25.25-.41.08-.17.04-.31-.02-.43-.06-.11-.56-1.35-.77-1.84-.2-.48-.4-.42-.56-.43-.14 0-.3-.01-.47-.01z" fill="#fff"/></svg>
